client/src/assets/icons/send.svg

<svg viewBox="0 0 16 16" fill="none" xmlns="http://www.w3.org/2000/svg">
<g>
<path d="M1.3389 13.2428C1.33941 13.6015 1.70627 13.8429 2.03594 13.7016L14.2616 8.45954C14.6655 8.28634 14.6655 7.71366 14.2616 7.54046L2.03594 2.29841C1.70627 2.15706 1.33941 2.39855 1.3389 2.75723L1.33394 6.22828C1.33358 6.47915 1.51918 6.69145 1.76786 6.72461L7.61621 7.50439C8.19477 7.58153 8.19477 8.41847 7.61621 8.49561L1.76786 9.27539C1.51918 9.30855 1.33358 9.52085 1.33394 9.77172L1.3389 13.2428Z" fill="#FBFBFE"/>
</g>
</svg>

<svg xmlns="http://www.w3.org/2000/svg" fill="none" viewBox="0 0 16 16"><path fill="#FBFBFE" d="M1.339 13.243a.5.5 0 0 0 .697.459L14.262 8.46a.5.5 0 0 0 0-.92L2.036 2.298a.5.5 0 0 0-.697.46l-.005 3.47a.5.5 0 0 0 .434.497l5.848.78c.579.077.579.913 0 .99l-5.848.78a.5.5 0 0 0-.434.497l.005 3.47Z"/></svg>
